X: 354
%
U:~=!turn!
T: Lothian Lasses
C:From Ross' Collection
O:Scotland
B:Keith Norman MacDonald : "The Skye collection of the best reels & strathspeys extant" : 1887
Z:Ralph Palmer
R:Reel
M:C|
L:1/8
K:E aeolian
D | B,E-EF GABG | FDAF dFAF | [1GFEF GABe | dBAF E/E/E E :|
[2 GFEF GABg | fe^df e/e/e e || f | gfef gabg | {/g}fedg fgaf | gfef gabg |
fdaf e/e/e (ef) | gfef gabg | {/g}fedg fgaf | gef^d egfe | dBAF E/E/E E |]


